assets/icons/functional/maps&travel/map-trifold.svg

<svg xmlns="http://www.w3.org/2000/svg" width="32" height="32" fill="none"><path stroke="#101828" stroke-linecap="round" stroke-linejoin="round" stroke-width="2" d="m12 23-8 2V7l8-2m8 22-8-4V5l8 4v18Zm0-18 8-2v18l-8 2"/></svg>

<svg width="32" height="32" viewBox="0 0 32 32" fill="none" xmlns="http://www.w3.org/2000/svg"><g id="Icon-MapTrifold"><g clip-path="url(#clip0_10_1546)"><g id="size=md (32px)"><g id="MapTrifold"><path id="Vector" d="M12 23L4 25V7L12 5" stroke="#101828" stroke-width="2" stroke-linecap="round" stroke-linejoin="round"/><path id="Vector_2" d="M20 27L12 23V5L20 9V27Z" stroke="#101828" stroke-width="2" stroke-linecap="round" stroke-linejoin="round"/><path id="Vector_3" d="M20 9L28 7V25L20 27" stroke="#101828" stroke-width="2" stroke-linecap="round" stroke-linejoin="round"/></g></g></g></g><defs><clipPath id="clip0_10_1546"><rect width="32" height="32" rx="5" fill="white"/></clipPath></defs></svg>
